svgs/sharp-regular/sink.svg

<svg xmlns="http://www.w3.org/2000/svg" viewBox="0 0 512 512"><!--! Font Awesome Pro 6.4.2 by @fontawesome - https://fontawesome.com License - https://fontawesome.com/license (Commercial License) Copyright 2023 Fonticons, Inc. --><path d="M280 88c0-22.1 17.9-40 40-40s40 17.9 40 40v24 24h48V112 88c0-48.6-39.4-88-88-88s-88 39.4-88 88V288H160V232 208H136 56 32v48H56h56v32H24 0v48H24 232h48H488h24V288H488 400V256h64 24V208H464 376 352v24 56H280V88zM32 368v24c0 66.3 53.7 120 120 120H360c66.3 0 120-53.7 120-120V368H432v24c0 39.8-32.2 72-72 72H152c-39.8 0-72-32.2-72-72V368H32z"/></svg>

<svg xmlns="http://www.w3.org/2000/svg" viewBox="0 0 512 512"><!--! Font Awesome Pro 6.6.0 by @fontawesome - https://fontawesome.com License - https://fontawesome.com/license (Commercial License) Copyright 2024 Fonticons, Inc. --><path d="M280 88c0-22.1 17.9-40 40-40s40 17.9 40 40l0 24 0 24 48 0 0-24 0-24c0-48.6-39.4-88-88-88s-88 39.4-88 88l0 200-72 0 0-56 0-24-24 0-80 0-24 0 0 48 24 0 56 0 0 32-88 0L0 288l0 48 24 0 208 0 48 0 208 0 24 0 0-48-24 0-88 0 0-32 64 0 24 0 0-48-24 0-88 0-24 0 0 24 0 56-72 0 0-200zM32 368l0 24c0 66.3 53.7 120 120 120l208 0c66.3 0 120-53.7 120-120l0-24-48 0 0 24c0 39.8-32.2 72-72 72l-208 0c-39.8 0-72-32.2-72-72l0-24-48 0z"/></svg>
